X: 18552
T: I Have Two Yellow Goats
R: polka
M: 2/4
K: Gmajor
DG GA|Bd A>G|EA A/B/A/G/|EA AG/E/|DG GA|Bd A2|GE ED/E/|GE EG/E/|
DG GA|Bd A>G|EA A/B/A/G/|EA AG/A/|Bd dc|Bd AB/A/|GE ED/E/|GE E2||
Bd dc|Bd A>G|EA A/B/A/G/|EA AG/A/|Bd dc|Bd AB/A/|GE ED/E/|GE E2|
Bd dc|Bd A>G|EA A/B/A/G/|EA AG/A/|Bd dc|Bd A2|GE ED/E/|GE E2||

